packages/core/src/svgs/tokens/branded/AR.svg

<svg width="24" height="24" viewBox="0 0 24 24" fill="none" xmlns="http://www.w3.org/2000/svg">
<path d="M12.0002 3.57098C7.34482 3.57098 3.57092 7.34488 3.57092 12.0003C3.57092 16.6552 7.34482 20.429 12.0002 20.429C16.6552 20.429 20.4289 16.6552 20.4289 12.0003C20.4289 7.34488 16.6552 3.57098 12.0002 3.57098ZM2 12.0003C2 6.47753 6.47747 2.00006 12.0002 2.00006C17.5225 2.00006 22 6.47753 22 12.0003C22 17.5226 17.523 21.9999 12.0002 21.9999C6.47747 21.9999 2 17.5231 2 12.0003Z" fill="#222326"/>
<path d="M13.4089 15.0104C13.3609 14.9113 13.3229 14.8077 13.2954 14.7011C13.2628 14.5794 13.2358 14.4563 13.2144 14.3322C13.1065 14.4487 12.9875 14.5544 12.859 14.6479C12.725 14.746 12.5753 14.8335 12.4092 14.9092C12.2369 14.9844 12.0568 15.0407 11.8724 15.0771C11.6628 15.1233 11.4489 15.146 11.2343 15.1446C10.8854 15.148 10.5383 15.0935 10.2074 14.9832C9.91533 14.8851 9.64452 14.7326 9.40917 14.5337C9.18819 14.3451 9.00966 14.1117 8.88536 13.8492C8.75897 13.5757 8.69476 13.2776 8.69734 12.9765C8.69734 12.2114 8.98114 11.6208 9.54988 11.2045C10.1228 10.7835 10.9748 10.5488 12.107 10.5488H12.926V10.1438C12.926 9.51417 12.4482 9.00921 11.8186 9.00921C11.4384 9.00921 11.1605 9.14105 10.986 9.30655C10.8116 9.4674 10.7242 9.68496 10.7242 9.95756H8.85875C8.85875 9.64895 8.92556 9.35566 9.05978 9.07838C9.19872 8.80049 9.39799 8.50843 9.65694 8.29795C9.92126 8.08747 10.241 7.92192 10.6171 7.8013C10.9973 7.67596 11.4312 7.61328 11.919 7.61328C12.3577 7.61328 12.7645 7.66709 13.1405 7.77469C13.5212 7.8817 13.85 8.04075 14.128 8.25123C14.4046 8.46112 14.6221 8.72778 14.7783 9.04941C14.935 9.36752 15.0136 9.73642 15.0136 10.1575V13.2714C15.0136 13.6611 15.0378 13.9833 15.0875 14.2382C15.1366 14.493 15.2082 14.7124 15.3021 14.8963V15.0104H13.4089ZM12.3654 13.4594C12.628 13.3146 12.8166 13.1219 12.9229 12.9362V11.7313H12.1945C11.6388 11.7313 10.9115 11.7904 10.6573 12.3722C10.4965 12.7281 10.5331 13.1762 10.8253 13.453C11.2615 13.8562 11.9048 13.7137 12.3654 13.4594Z" fill="#222326"/>
</svg>

<svg xmlns="http://www.w3.org/2000/svg" width="24" height="24" fill="none" viewBox="0 0 24 24">
    <path fill="#222326" d="M12 3.571a8.43 8.43 0 1 0 0 16.859 8.43 8.43 0 0 0 0-16.86M2 12C2 6.477 6.477 2 12 2s10 4.477 10 10-4.477 10-10 10S2 17.523 2 12"/>
    <path fill="#222326" d="M13.409 15.01a1.7 1.7 0 0 1-.114-.309 4 4 0 0 1-.08-.369 2.4 2.4 0 0 1-.806.577 2.6 2.6 0 0 1-.537.168q-.315.07-.638.068a3.2 3.2 0 0 1-1.027-.162 2.4 2.4 0 0 1-.798-.45 2.1 2.1 0 0 1-.524-.684 2 2 0 0 1-.188-.873q0-1.147.853-1.772c.573-.42 1.425-.655 2.557-.655h.819v-.405c0-.63-.478-1.135-1.107-1.135-.38 0-.659.132-.833.298q-.261.241-.262.65H8.86q0-.462.2-.879c.14-.278.339-.57.598-.78a3 3 0 0 1 .96-.497q.57-.188 1.302-.188.658 0 1.221.162.571.16.988.476.416.316.65.798.236.477.236 1.109v3.113q0 .585.074.967.073.382.214.658v.114zm-1.044-1.55a1.44 1.44 0 0 0 .558-.524v-1.205h-.729c-.555 0-1.283.06-1.537.641-.16.356-.124.804.168 1.081.437.403 1.08.26 1.54.006"/>
</svg>
